X:186
T:Drunken Wife, The
T:'Chailleach Mhusgach
R:Reel
B:The Athole Collection
M:C|
L:1/8
K:A
e|ceec BcdB|ceec e/f/g ae|ceec BcdB|cA c/d/e f2e:|
f|aece fBBe|aece f2ef|aece fBBe|cA c/d/e f2 ef|aece fBBe|
afce f2ef|aece fBBe|ceae faef||

